X:1
T:Title
%%score { ( 1 3 4 ) | ( 2 5 ) }
L:1/8
Q:1/4=108
M:4/4
K:Ab
V:1 treble nm="Grand Piano"
V:3 treble 
V:4 treble 
V:2 bass 
V:5 bass 
V:1
 [Ec]>[=D_c] [E=c]>[Fd] [Ec]2 [_DB]2 | [CA]4 [CE]4 | G>_G =G>A B2 E2 | [Cc]6 z2 | %4
w: F.~E.~Whitney * * * * *||||
 [Ec]>[=D_c] [E=c]>[Fd] [Ec]2 B2 | A4 F4 | E>A c>A B2 E2 |[M:3/4] [CA]6 |[M:1/4] [Ee]>[Ae] | %9
w: |||||
[M:4/4] [Ge]6 z2 | [Ec]4 [CEA]2 [Ec]>[Ec] | [EB]2 [EB]2 [Fc]2 [=DAc]2 |[M:7/8] e-e-e- e- e3 | %13
w: ||||
[M:1/4] [Ge]>[Ge] |[M:4/4] [Ae]6 z2 | [FB]4 z2 _C2 | E>A c>A B2 E2 | [CA]6 z2 |] %18
w: |||||
V:2
 [A,,A,]>[A,,A,] [A,,A,]>[A,,A,] [A,,A,]2 [A,,E,]2 | [A,,E,]4 [A,,A,]4 | %2
 [E,B,D]>[E,=A,C] [E,B,D]>[E,_A,D] [E,G,D]2 [E,G,D]2 | [A,,A,]6 z2 | %4
 [A,,A,]>[A,,A,] [A,,A,]>[A,,A,] [A,,A,]2 [E,G,D]2 | [F,A,C]4 [D,A,D]4 | %6
 [E,A,C]>[E,A,C] [E,A,E]>[E,A,C] [E,G,D]2 [E,G,D]2 |[M:3/4] [A,,A,]6 |[M:1/4] [A,C]>[A,C] | %9
[M:4/4] [E,D]2 E,2 z[K:treble] G z z/ F/ | A,4 A,,2 [A,,A,]>[A,,A,] | %11
 [B,,G,]2 [B,,G,]2 z z/[K:treble] B/ z z/ B/ |[M:7/8][K:bass] z2 C2 D3 |[M:1/4] [E,D]>[E,D] | %14
[M:4/4] [A,C]2 A,2 z E z z/ E/ | z4 A,4 | [E,A,C]>[E,A,C] [E,A,E]>[E,A,C] [E,G,D]2 [E,G,D]2 | %17
 [A,,E,]6 z2 |] %18
V:3
 x8 | x8 | x8 | x8 | x8 | x8 | x8 |[M:3/4] x6 |[M:1/4] x2 |[M:4/4] z2 D2 z B [Ge]>d | x8 | x8 | %12
[M:7/8] [EG]2 A2 B3 |[M:1/4] x2 |[M:4/4] z2 C2 z c [Fd]>c | z4 F4 | x8 | x8 |] %18
V:4
 x8 | x8 | x8 | x8 | x8 | x8 | x8 |[M:3/4] x6 |[M:1/4] x2 |[M:4/4] z4 D2 z2 | x8 | x8 |[M:7/8] x7 | %13
[M:1/4] x2 |[M:4/4] z4 C2 z2 | x8 | x8 | x8 |] %18
V:5
 x8 | x8 | x8 | x8 | x8 | x8 | x8 |[M:3/4] x6 |[M:1/4] x2 |[M:4/4] z4 E,2[K:treble] [E,D]2 | x8 | %11
 z4 [=D,B,]2[K:treble] B,,2 |[M:7/8][K:bass] E,-E,-E,- E,- E,3 |[M:1/4] x2 |[M:4/4] z4 A,2 A,2 | %15
 [D,A,]4 [D,D]2 =D,2 | x8 | x8 |] %18

